X: 19
T:Fairie's Revels. HSJJ.019
M:6/8
L:1/8
S:HSJ Jackson,Wyresdale,Lancs.1823
R:Jig
O:England
A:Lancashire
H:1823
Z:vmp.Chris Partington.
K:C
|:G|c2c cBc|ABc def|e2c cBc|B2G GAB|
c2c cBc ABc def|Adc BAB|c3-c2:|
|:c|g2g gfe|fga a2c'|gec cBc|d2G GAB|
EGc cBc|Acf fga|g2c dcd|e2c c2:|
